icons/OpenLotus/actions/22/kdeconnect.svg

<?xml version="1.0" encoding="UTF-8" standalone="no"?>
<!-- Created with Inkscape (http://www.inkscape.org/) -->

<svg
   xmlns:dc="http://purl.org/dc/elements/1.1/"
   xmlns:cc="http://creativecommons.org/ns#"
   xmlns:rdf="http://www.w3.org/1999/02/22-rdf-syntax-ns#"
   xmlns:svg="http://www.w3.org/2000/svg"
   xmlns="http://www.w3.org/2000/svg"
   xmlns:sodipodi="http://sodipodi.sourceforge.net/DTD/sodipodi-0.dtd"
   xmlns:inkscape="http://www.inkscape.org/namespaces/inkscape"
   width="22.000002"
   height="22"
   viewBox="0 0 22.000002 22"
   version="1.1"
   id="main"
   inkscape:version="0.92+devel (9279f97481, 2017-09-04, custom)"
   sodipodi:docname="kdeconnect.svg">
  <defs
     id="ol-defs" />
  <sodipodi:namedview
     id="base"
     pagecolor="#002466"
     bordercolor="#ffffff"
     borderopacity="0.30"
     inkscape:pageopacity="1"
     inkscape:pageshadow="2"
     inkscape:zoom="37.1673"
     inkscape:document-units="px"
     inkscape:current-layer="main"
     inkscape:document-rotation="0"
     showgrid="false"
     inkscape:showpageshadow="false"
     borderlayer="true"
     inkscape:window-width="1920"
     inkscape:window-height="1025"
     inkscape:window-x="0"
     inkscape:window-y="26"
     inkscape:window-maximized="1"
     units="px"
     inkscape:cx="7.959642"
     inkscape:cy="8.0000001" />
  <metadata
     id="metadata5">
    <rdf:RDF>
      <cc:Work
         rdf:about="">
        <dc:format>image/svg+xml</dc:format>
        <dc:type
           rdf:resource="http://purl.org/dc/dcmitype/StillImage" />
        <dc:title></dc:title>
      </cc:Work>
    </rdf:RDF>
  </metadata>
  <g
     id="g839"
     inkscape:label="#kdeconnect"
     transform="scale(1.375)"
     style="stroke-width:0.72727275">
    <path
       style="fill:none;stroke:none;stroke-width:0.72727275"
       d="M -5.5000004e-8,-4.9999999e-8 H 16.000001 V 16 H -5.5000004e-8 Z"
       id="boundary"
       inkscape:label="#boundary"
       inkscape:connector-curvature="0" />
    <path
       inkscape:label="#"
       inkscape:connector-curvature="0"
       d="m 5.0527345,2.0000001 c -0.338716,0 -0.611329,0.2726127 -0.611329,0.6113278 V 13.388672 C 4.4414055,13.727387 4.7140185,14 5.0527345,14 h 5.8945325 c 0.338715,0 0.611328,-0.272613 0.611328,-0.611328 V 2.6113279 c 0,-0.3387151 -0.272613,-0.6113278 -0.611328,-0.6113278 z m 2.914062,0.7695309 a 0.45445851,0.45445851 0 0 1 0.0332,0 0.45445851,0.45445851 0 0 1 0.453125,0.455078 0.45445851,0.45445851 0 0 1 -0.453125,0.455078 0.45445851,0.45445851 0 0 1 -0.455078,-0.455078 0.45445851,0.45445851 0 0 1 0.421876,-0.455078 z m -0.925782,10.025391 h 1.917969 c 0.120832,0 0.218751,0.09596 0.218751,0.216797 0,0.120833 -0.09791,0.21875 -0.218751,0.21875 h -1.917969 c -0.120832,0 -0.21875,-0.09792 -0.21875,-0.21875 0,-0.120832 0.09792,-0.216797 0.21875,-0.216797 z"
       id="path818"
       style="opacity:0.6;fill:#d0d0d0;stroke-width:0.72727275" />
  </g>
</svg>

<?xml version="1.0" encoding="UTF-8" standalone="no"?>
<!-- Created with Inkscape (http://www.inkscape.org/) -->

<svg
     xmlns:dc="http://purl.org/dc/elements/1.1/"
     xmlns:cc="http://creativecommons.org/ns#"
     xmlns:rdf="http://www.w3.org/1999/02/22-rdf-syntax-ns#"
     xmlns:svg="http://www.w3.org/2000/svg"
     xmlns="http://www.w3.org/2000/svg"
     xmlns:sodipodi="http://sodipodi.sourceforge.net/DTD/sodipodi-0.dtd"
     xmlns:inkscape="http://www.inkscape.org/namespaces/inkscape"
     width="22"
     height="22"
     viewBox="0 0 22 22"
     version="1.1"
     id="svg8"
     inkscape:version="0.92+devel (78cebbf91a, 2017-07-21, custom)"
     sodipodi:docname="kdeconnect.svg">
    <defs
         id="ol-defs">
        <style
             id="current-color-scheme">      .ColorScheme-Text {
        color:#d0d0d0;
        stop-color:#d0d0d0;
      }
      .ColorScheme-Background {
        color:#212121;
        stop-color:#212121;
      }
      .ColorScheme-Highlight {
        color:#0039a9;
        stop-color:#0039a9;
      }
      .ColorScheme-ViewText {
        color:#d0d0d0;
        stop-color:#d0d0d0;
      }
      .ColorScheme-ViewBackground {
        color:#19191b;
        stop-color:#19191b;
      }
      .ColorScheme-ViewHover {
        color:#005cc7;
        stop-color:#005cc7;
      }
      .ColorScheme-ViewFocus{
        color:#002466;
        stop-color:#002466;
      }
      .ColorScheme-ButtonText {
        color:#d0d0d0;
        stop-color:#d0d0d0;
      }
      .ColorScheme-ButtonBackground {
        color:#232323;
        stop-color:#232323;                             
      }                                                 
      .ColorScheme-ButtonHover {                        
        color:#005cc7;                                  
        stop-color:#005cc7;                             
      }                                                 
      .ColorScheme-ButtonFocus{                         
        color:#0039a9;                                  
        stop-color:#0039a9;                             
      }</style>
        <style
             id="current-color-scheme-7">      .ColorScheme-Text {
        color:#d0d0d0;
        stop-color:#d0d0d0;
      }
      .ColorScheme-Background {
        color:#212121;
        stop-color:#212121;
      }
      .ColorScheme-Highlight {
        color:#0039a9;
        stop-color:#0039a9;
      }
      .ColorScheme-ViewText {
        color:#d0d0d0;
        stop-color:#d0d0d0;
      }
      .ColorScheme-ViewBackground {
        color:#19191b;
        stop-color:#19191b;
      }
      .ColorScheme-ViewHover {
        color:#005cc7;
        stop-color:#005cc7;
      }
      .ColorScheme-ViewFocus{
        color:#002466;
        stop-color:#002466;
      }
      .ColorScheme-ButtonText {
        color:#d0d0d0;
        stop-color:#d0d0d0;
      }
      .ColorScheme-ButtonBackground {
        color:#232323;
        stop-color:#232323;                             
      }                                                 
      .ColorScheme-ButtonHover {                        
        color:#005cc7;                                  
        stop-color:#005cc7;                             
      }                                                 
      .ColorScheme-ButtonFocus{                         
        color:#0039a9;                                  
        stop-color:#0039a9;                             
      }</style>
        <style
             type="text/css"
             id="current-color-scheme-6">
      .ColorScheme-Text {
        color:#f2f2f2;
      }
      </style>
        <style
             id="current-color-scheme-75">      .ColorScheme-Text {
        color:#d0d0d0;
        stop-color:#d0d0d0;
      }
      .ColorScheme-Background {
        color:#212121;
        stop-color:#212121;
      }
      .ColorScheme-Highlight {
        color:#0039a9;
        stop-color:#0039a9;
      }
      .ColorScheme-ViewText {
        color:#d0d0d0;
        stop-color:#d0d0d0;
      }
      .ColorScheme-ViewBackground {
        color:#19191b;
        stop-color:#19191b;
      }
      .ColorScheme-ViewHover {
        color:#005cc7;
        stop-color:#005cc7;
      }
      .ColorScheme-ViewFocus{
        color:#002466;
        stop-color:#002466;
      }
      .ColorScheme-ButtonText {
        color:#d0d0d0;
        stop-color:#d0d0d0;
      }
      .ColorScheme-ButtonBackground {
        color:#232323;
        stop-color:#232323;                             
      }                                                 
      .ColorScheme-ButtonHover {                        
        color:#005cc7;                                  
        stop-color:#005cc7;                             
      }                                                 
      .ColorScheme-ButtonFocus{                         
        color:#0039a9;                                  
        stop-color:#0039a9;                             
      }</style>
        <style
             id="current-color-scheme-7-3">      .ColorScheme-Text {
        color:#d0d0d0;
        stop-color:#d0d0d0;
      }
      .ColorScheme-Background {
        color:#212121;
        stop-color:#212121;
      }
      .ColorScheme-Highlight {
        color:#0039a9;
        stop-color:#0039a9;
      }
      .ColorScheme-ViewText {
        color:#d0d0d0;
        stop-color:#d0d0d0;
      }
      .ColorScheme-ViewBackground {
        color:#19191b;
        stop-color:#19191b;
      }
      .ColorScheme-ViewHover {
        color:#005cc7;
        stop-color:#005cc7;
      }
      .ColorScheme-ViewFocus{
        color:#002466;
        stop-color:#002466;
      }
      .ColorScheme-ButtonText {
        color:#d0d0d0;
        stop-color:#d0d0d0;
      }
      .ColorScheme-ButtonBackground {
        color:#232323;
        stop-color:#232323;                             
      }                                                 
      .ColorScheme-ButtonHover {                        
        color:#005cc7;                                  
        stop-color:#005cc7;                             
      }                                                 
      .ColorScheme-ButtonFocus{                         
        color:#0039a9;                                  
        stop-color:#0039a9;                             
      }</style>
        <style
             id="current-color-scheme-6-5"
             type="text/css">
      .ColorScheme-Text {
        color:#f2f2f2;
      }
      </style>
        <style
             id="current-color-scheme-70">      .ColorScheme-Text {
        color:#d0d0d0;
        stop-color:#d0d0d0;
      }
      .ColorScheme-Background {
        color:#212121;
        stop-color:#212121;
      }
      .ColorScheme-Highlight {
        color:#0039a9;
        stop-color:#0039a9;
      }
      .ColorScheme-ViewText {
        color:#d0d0d0;
        stop-color:#d0d0d0;
      }
      .ColorScheme-ViewBackground {
        color:#19191b;
        stop-color:#19191b;
      }
      .ColorScheme-ViewHover {
        color:#005cc7;
        stop-color:#005cc7;
      }
      .ColorScheme-ViewFocus{
        color:#002466;
        stop-color:#002466;
      }
      .ColorScheme-ButtonText {
        color:#d0d0d0;
        stop-color:#d0d0d0;
      }
      .ColorScheme-ButtonBackground {
        color:#232323;
        stop-color:#232323;                             
      }                                                 
      .ColorScheme-ButtonHover {                        
        color:#005cc7;                                  
        stop-color:#005cc7;                             
      }                                                 
      .ColorScheme-ButtonFocus{                         
        color:#0039a9;                                  
        stop-color:#0039a9;                             
      }</style>
        <style
             id="current-color-scheme-7-9">      .ColorScheme-Text {
        color:#d0d0d0;
        stop-color:#d0d0d0;
      }
      .ColorScheme-Background {
        color:#212121;
        stop-color:#212121;
      }
      .ColorScheme-Highlight {
        color:#0039a9;
        stop-color:#0039a9;
      }
      .ColorScheme-ViewText {
        color:#d0d0d0;
        stop-color:#d0d0d0;
      }
      .ColorScheme-ViewBackground {
        color:#19191b;
        stop-color:#19191b;
      }
      .ColorScheme-ViewHover {
        color:#005cc7;
        stop-color:#005cc7;
      }
      .ColorScheme-ViewFocus{
        color:#002466;
        stop-color:#002466;
      }
      .ColorScheme-ButtonText {
        color:#d0d0d0;
        stop-color:#d0d0d0;
      }
      .ColorScheme-ButtonBackground {
        color:#232323;
        stop-color:#232323;                             
      }                                                 
      .ColorScheme-ButtonHover {                        
        color:#005cc7;                                  
        stop-color:#005cc7;                             
      }                                                 
      .ColorScheme-ButtonFocus{                         
        color:#0039a9;                                  
        stop-color:#0039a9;                             
      }</style>
        <style
             id="current-color-scheme-75-3">      .ColorScheme-Text {
        color:#d0d0d0;
        stop-color:#d0d0d0;
      }
      .ColorScheme-Background {
        color:#212121;
        stop-color:#212121;
      }
      .ColorScheme-Highlight {
        color:#0039a9;
        stop-color:#0039a9;
      }
      .ColorScheme-ViewText {
        color:#d0d0d0;
        stop-color:#d0d0d0;
      }
      .ColorScheme-ViewBackground {
        color:#19191b;
        stop-color:#19191b;
      }
      .ColorScheme-ViewHover {
        color:#005cc7;
        stop-color:#005cc7;
      }
      .ColorScheme-ViewFocus{
        color:#002466;
        stop-color:#002466;
      }
      .ColorScheme-ButtonText {
        color:#d0d0d0;
        stop-color:#d0d0d0;
      }
      .ColorScheme-ButtonBackground {
        color:#232323;
        stop-color:#232323;                             
      }                                                 
      .ColorScheme-ButtonHover {                        
        color:#005cc7;                                  
        stop-color:#005cc7;                             
      }                                                 
      .ColorScheme-ButtonFocus{                         
        color:#0039a9;                                  
        stop-color:#0039a9;                             
      }</style>
        <style
             id="current-color-scheme-3">      .ColorScheme-Text {
        color:#d0d0d0;
        stop-color:#d0d0d0;
      }
      .ColorScheme-Background {
        color:#212121;
        stop-color:#212121;
      }
      .ColorScheme-Highlight {
        color:#0039a9;
        stop-color:#0039a9;
      }
      .ColorScheme-ViewText {
        color:#d0d0d0;
        stop-color:#d0d0d0;
      }
      .ColorScheme-ViewBackground {
        color:#19191b;
        stop-color:#19191b;
      }
      .ColorScheme-ViewHover {
        color:#005cc7;
        stop-color:#005cc7;
      }
      .ColorScheme-ViewFocus{
        color:#002466;
        stop-color:#002466;
      }
      .ColorScheme-ButtonText {
        color:#d0d0d0;
        stop-color:#d0d0d0;
      }
      .ColorScheme-ButtonBackground {
        color:#232323;
        stop-color:#232323;                             
      }                                                 
      .ColorScheme-ButtonHover {                        
        color:#005cc7;                                  
        stop-color:#005cc7;                             
      }                                                 
      .ColorScheme-ButtonFocus{                         
        color:#0039a9;                                  
        stop-color:#0039a9;                             
      }</style>
    </defs>
    <sodipodi:namedview
         id="base"
         pagecolor="#002266"
         bordercolor="#ffffff"
         borderopacity="0.46666667"
         inkscape:pageopacity="0"
         inkscape:pageshadow="2"
         inkscape:zoom="11.234375"
         inkscape:cx="21.060465"
         inkscape:cy="13.588541"
         inkscape:document-units="px"
         inkscape:current-layer="svg8"
         inkscape:document-rotation="0"
         showgrid="false"
         inkscape:showpageshadow="false"
         borderlayer="true"
         units="px"
         fit-margin-top="0"
         fit-margin-left="0"
         fit-margin-right="0"
         fit-margin-bottom="0"
         inkscape:window-width="1920"
         inkscape:window-height="1051"
         inkscape:window-x="0"
         inkscape:window-y="0"
         inkscape:window-maximized="1"
         inkscape:snap-page="true"
         guidecolor="#f4ff00"
         guideopacity="0.42745098"
         guidehicolor="#4fff00"
         guidehiopacity="0.49803922" />
    <metadata
         id="metadata5">
        <rdf:RDF>
            <cc:Work
                 rdf:about="">
                <dc:format>image/svg+xml</dc:format>
                <dc:type
                     rdf:resource="http://purl.org/dc/dcmitype/StillImage" />
                <dc:title></dc:title>
            </cc:Work>
        </rdf:RDF>
    </metadata>
    <g
         id="g852"
         inkscape:label="#kdeconnect"
         transform="scale(1.375)"
         style="stroke-width:0.72727275">
        <rect
             style="vector-effect:none;fill:none;stroke-width:1.58677685;stroke-linecap:round"
             id="rect4264-9"
             width="16"
             height="16"
             x="0"
             y="0"
             inkscape:label="#boundary" />
        <path
             inkscape:connector-curvature="0"
             style="opacity:0.6;fill:#d0d0d0;stroke-width:1.23636365"
             d="M 5.0527345,2 C 4.7140188,2 4.4418941,2.2721252 4.4418941,2.6108405 V 13.38916 C 4.4418941,13.727875 4.7140188,14 5.0527345,14 h 5.8945305 c 0.338716,0 0.610841,-0.272125 0.610841,-0.61084 V 2.6108405 C 11.558106,2.2721252 11.285981,2 10.947265,2 Z M 7.9999994,2.769043 A 0.45445853,0.45445853 0 0 1 8.4541015,3.2246099 0.45445853,0.45445853 0 0 1 7.9999994,3.6787119 0.45445853,0.45445853 0 0 1 7.5458973,3.2246099 0.45445853,0.45445853 0 0 1 7.9999994,2.769043 Z M 7.0405269,12.795898 h 1.918945 c 0.1208325,0 0.2182627,0.09596 0.2182627,0.216797 0,0.120833 -0.097427,0.218262 -0.2182627,0.218262 h -1.918945 c -0.1208325,0 -0.2182609,-0.09743 -0.2182609,-0.218262 0,-0.120832 0.097426,-0.216797 0.2182609,-0.216797 z"
             id="rect811"
             inkscape:label="#" />
    </g>
</svg>
